core/solid/phone/airplane-disabled.svg

<svg xmlns="http://www.w3.org/2000/svg" fill="none" viewBox="0 0 14 14" id="Airplane-Disabled--Streamline-Core">
  <desc>
    Airplane Disabled Streamline Icon: https://streamlinehq.com
  </desc>
  <g id="airplane-disabled--server-plane-airplane-disabled-off-wireless-mode-internet-network">
    <path id="Union" fill="#000000" fill-rule="evenodd" d="M0.218998 1.2796c-0.2928925 -0.292896 -0.2928925 -0.767769 0 -1.060662 0.292893 -0.2928937 0.767767 -0.2928937 1.060662 0L4.70973 3.64901l-0.02825 -0.19305c-0.12684 -0.86668 0.10885 -1.74735 0.6516 -2.43484 0.85016 -1.0768665 2.4831 -1.0768665 3.33326 0 0.54275 0.68749 0.77843 1.56816 0.6516 2.43484l-0.20401 1.39406 4.11687 2.08783c0.3567 0.18089 0.5814 0.54688 0.5814 0.94681 0 0.68064 -0.6315 1.18545 -1.2954 1.03553l-3.27552 -0.73963L13.781 12.7203c0.2929 0.2929 0.2929 0.7678 0 1.0607 -0.2929 0.2928 -0.7678 0.2928 -1.0606 0L0.218998 1.2796ZM5.40986 8.23306 10.5778 13.401c-0.2814 0.3708 -0.79625 0.5417 -1.27323 0.3349l-2.30486 -0.9995 -2.30486 0.9995c-0.70261 0.3046 -1.48732 -0.2104 -1.48732 -0.9762 0 -0.3128 0.13759 -0.6097 0.37622 -0.8119l2.04004 -1.7283 -0.21393 -1.98644ZM2.98874 5.81194l2.25824 2.25824 -3.76433 0.85001C0.818715 9.07011 0.187209 8.5653 0.187209 7.88466c0 -0.39993 0.224757 -0.76592 0.581439 -0.94681L2.98874 5.81194Z" clip-rule="evenodd" stroke-width="1"></path>
  </g>
</svg>

<svg xmlns="http://www.w3.org/2000/svg" fill="none" viewBox="0 0 14 14"><g id="airplane-disabled--server-plane-airplane-disabled-off-wireless-mode-internet-network"><path id="Union" fill="#3e3e3e" fill-rule="evenodd" d="M.219 1.28A.75.75 0 0 1 1.279.219l3.43 3.43-.028-.193a3.185 3.185 0 0 1 .652-2.435 2.123 2.123 0 0 1 3.333 0c.543.688.779 1.568.652 2.435L9.114 4.85l4.117 2.088a1.062 1.062 0 0 1-.714 1.982L9.24 8.18l4.54 4.54a.75.75 0 0 1-1.06 1.061L.218 1.28Zm5.19 6.953 5.169 5.168c-.282.37-.796.542-1.273.335l-2.305-1-2.305 1a1.064 1.064 0 0 1-1.111-1.788l2.04-1.729-.214-1.986ZM2.99 5.812 5.247 8.07l-3.764.85a1.062 1.062 0 0 1-.714-1.982l2.22-1.126Z" clip-rule="evenodd"></path></g></svg>
